X:313
T:Hembygden 1945, Polska 
C:Carl-Eric Berndt
R:Polska
O:Lund, Skåne
N:Polskan är tillägnad Olof Andersson vid riksspelmansstämman 1939 och publicerad i Hembygden 1945:2.
B:[[http://www.smus.se/earkiv/fmk/browselarge.php?lang=sw&katalogid=Svldiv+1%3A9&bildnr=00027|SMUS - katalog Svldiv1:9 bild 27]]
M:3/4
L:1/16
K:Dm
|:d4 (DF)Ad f2(fa)|g3e (c=B)ce (g^f)gb|(ab)af (d^c)de (fg)fd|(ea)^ga (ed)^c=B [AA]4|
d4 (DF)Ad f2(fa)|g3e (c=B)ce (g^f)gb|ad'=fd' ed'dd' ^cc'Bb|afe^c AGFE [DD]2 z2:|
|:c'2(c'b) agfe dcBA|BcBA (Gc)eg b2z2|cdc=B c2b2 [G,E]2b2|FGFE F2a2 [A,F]2a2|
c'2(c'b) agfe dcBA|(Bc)BA (Gc)eg b2z2| d'^c'd'e =c'=bc'e _babe|g^fge =f4 F2z2:|
(:musicend:)

(:music:)
